<?xml version="1.0" encoding="UTF-8"?>
<map version="1.10" tiledversion="1.11.2" orientation="orthogonal" renderorder="right-down" width="20" height="12" tilewidth="64" tileheight="64" infinite="0" nextlayerid="4" nextobjectid="20">
 <tileset firstgid="1" source="gunwave.tsx"/>
 <tileset firstgid="41" source="tilemap__flat.tsx"/>
 <layer id="1" name="background" width="20" height="12">
  <data encoding="csv">
46,46,46,46,46,46,46,46,46,46,46,46,46,46,46,46,46,46,46,46,
46,46,46,46,46,46,46,46,46,46,46,46,46,46,46,46,46,46,46,46,
46,46,46,46,46,46,46,46,46,46,46,46,46,46,46,46,46,46,46,46,
1,2,2,2,2,2,2,2,3,46,46,46,46,46,46,46,46,46,46,46,
11,12,12,12,12,12,12,12,12,2,2,2,2,3,46,46,46,46,46,46,
11,12,12,12,12,64,12,12,12,12,12,12,12,12,32,32,32,32,32,33,
11,12,12,12,12,12,12,12,12,22,22,22,22,23,54,54,54,54,54,55,
21,22,22,22,22,22,22,22,23,54,54,54,54,55,46,46,46,46,46,46,
53,54,54,54,54,54,54,54,55,46,46,46,46,46,46,46,46,46,46,46,
46,46,46,46,46,46,46,46,46,46,46,46,46,46,46,46,46,46,46,46,
46,46,46,46,46,46,46,46,46,46,46,46,46,46,46,46,46,46,46,46,
46,46,46,46,46,46,46,46,46,46,46,46,46,46,46,46,46,46,46,46
</data>
 </layer>
 <objectgroup id="2" name="collisions">
  <object id="1" type="boundary" x="0" y="128" width="576" height="64"/>
  <object id="2" type="boundary" x="576" y="201.419" width="322.442" height="54.581"/>
  <object id="3" type="boundary" x="896" y="256" width="384" height="64"/>
  <object id="7" type="boundary" x="0" y="512" width="576" height="64"/>
  <object id="8" type="boundary" x="576" y="448" width="320" height="64"/>
  <object id="9" type="boundary" x="896" y="384" width="384"/>
  <object id="10" type="boundary" x="896" y="384" width="384" height="64"/>
  <object id="11" type="boundary" x="-64" y="0" width="64" height="768"/>
  <object id="12" type="boundary" x="1280" y="0" width="64" height="768"/>
  <object id="19" x="320" y="320" width="64" height="64"/>
 </objectgroup>
 <objectgroup id="3" name="spawn_points">
  <object id="14" type="character" x="64" y="256" width="192" height="192"/>
 </objectgroup>
</map>
