<?xml version="1.0" encoding="UTF-8"?>
<map version="1.10" tiledversion="1.11.2" orientation="orthogonal" renderorder="right-down" width="40" height="20" tilewidth="64" tileheight="64" infinite="0" nextlayerid="4" nextobjectid="13">
 <tileset firstgid="1" source="tilemap__elevation.tsx"/>
 <tileset firstgid="41" source="tilemap__flat.tsx"/>
 <layer id="1" name="background" width="40" height="20">
  <data encoding="csv">
46,46,46,46,46,46,46,46,46,46,46,46,46,46,46,46,46,46,46,46,46,46,46,46,46,46,46,46,46,46,46,46,46,46,46,46,46,46,46,46,
46,46,46,46,46,46,46,46,46,46,46,46,46,46,46,46,46,46,46,46,46,46,46,46,46,46,46,46,46,46,46,46,46,46,46,46,46,46,46,46,
46,46,46,46,46,46,46,46,46,46,46,46,46,46,46,46,46,46,46,46,46,46,46,46,46,46,46,46,46,46,46,46,46,46,46,46,46,46,46,46,
46,46,46,46,46,46,46,46,46,46,46,46,46,46,46,46,46,46,46,46,46,46,46,46,46,46,46,46,46,46,46,46,46,46,46,46,46,46,46,46,
46,46,46,46,46,46,46,46,46,46,46,46,46,46,46,46,46,46,46,46,46,46,46,46,46,46,46,46,46,46,46,46,46,46,46,46,46,46,46,46,
46,46,46,46,46,46,46,46,46,46,46,46,46,46,46,46,46,46,46,46,46,46,46,46,46,46,46,46,46,46,46,46,46,46,46,46,46,46,46,46,
46,46,46,46,46,46,46,46,46,46,46,46,46,46,46,46,46,46,46,46,46,46,46,46,46,46,46,46,46,46,46,46,46,46,46,46,46,46,46,46,
46,46,46,46,46,46,1,2,2,2,2,2,2,2,3,46,46,46,46,46,46,46,46,46,46,46,46,46,46,46,46,46,46,46,46,46,46,46,46,46,
46,46,46,46,46,46,11,12,12,12,12,12,12,12,12,2,2,2,2,3,46,46,46,46,46,46,46,46,46,46,46,46,46,46,46,46,46,46,46,46,
46,46,46,46,46,46,11,12,12,12,12,12,12,12,12,12,12,12,12,12,32,32,32,32,32,33,46,46,46,46,46,46,46,46,46,46,46,46,46,46,
46,46,46,46,46,46,11,12,12,12,12,12,12,12,12,22,22,22,22,23,54,54,54,54,54,55,46,46,46,46,46,46,46,46,46,46,46,46,46,46,
46,46,46,46,46,46,21,22,22,22,22,22,22,22,23,54,54,54,54,55,46,46,46,46,46,46,46,46,46,46,46,46,46,46,46,46,46,46,46,46,
46,46,46,46,46,46,53,54,54,54,54,54,54,54,55,46,46,46,46,46,46,46,46,46,46,46,46,46,46,46,46,46,46,46,46,46,46,46,46,46,
46,46,46,46,46,46,46,46,46,46,46,46,46,46,46,46,46,46,46,46,46,46,46,46,46,46,46,46,46,46,46,46,46,46,46,46,46,46,46,46,
46,46,46,46,46,46,46,46,46,46,46,46,46,46,46,46,46,46,46,46,46,46,46,46,46,46,46,46,46,46,46,46,46,46,46,46,46,46,46,46,
46,46,46,46,46,46,46,46,46,46,46,46,46,46,46,46,46,46,46,46,46,46,46,46,46,46,46,46,46,46,46,46,46,46,46,46,46,46,46,46,
46,46,46,46,46,46,46,46,46,46,46,46,46,46,46,46,46,46,46,46,46,46,46,46,46,46,46,46,46,46,46,46,46,46,46,46,46,46,46,46,
46,46,46,46,46,46,46,46,46,46,46,46,46,46,46,46,46,46,46,46,46,46,46,46,46,46,46,46,46,46,46,46,46,46,46,46,46,46,46,46,
46,46,46,46,46,46,46,46,46,46,46,46,46,46,46,46,46,46,46,46,46,46,46,46,46,46,46,46,46,46,46,46,46,46,46,46,46,46,46,46,
46,46,46,46,46,46,46,46,46,46,46,46,46,46,46,46,46,46,46,46,46,46,46,46,46,46,46,46,46,46,46,46,46,46,46,46,46,46,46,46
</data>
 </layer>
 <objectgroup id="2" name="collisions">
  <object id="1" type="boundary" x="384" y="384" width="576" height="64"/>
  <object id="2" type="boundary" x="960" y="457.419" width="322.442" height="54.581"/>
  <object id="3" type="boundary" x="1280" y="512" width="384" height="64"/>
  <object id="4" type="boundary" x="384" y="768" width="576" height="64"/>
  <object id="5" type="boundary" x="960" y="704" width="320" height="64"/>
  <object id="6" type="boundary" x="1280" y="640" width="384"/>
  <object id="7" type="boundary" x="1280" y="640" width="384" height="64"/>
  <object id="8" type="boundary" x="320" y="256" width="64" height="768"/>
  <object id="9" type="boundary" x="1664" y="256" width="64" height="768"/>
 </objectgroup>
 <objectgroup id="3" name="spawn_points">
  <object id="11" type="character" x="384" y="512" width="192" height="192"/>
  <object id="12" type="monster" x="768" y="512" width="192" height="192">
   <properties>
    <property name="negXBound" type="float" value="2"/>
    <property name="posXBound" type="float" value="2"/>
   </properties>
  </object>
 </objectgroup>
</map>
