<?xml version="1.0" encoding="UTF-8"?>
<map version="1.10" tiledversion="1.11.2" orientation="orthogonal" renderorder="right-down" width="50" height="25" tilewidth="64" tileheight="64" infinite="0" nextlayerid="8" nextobjectid="113">
 <tileset firstgid="1" source="water.tsx"/>
 <tileset firstgid="2" source="flat.tsx"/>
 <tileset firstgid="42" source="foam.tsx"/>
 <tileset firstgid="114" source="rocks_lg.tsx"/>
 <tileset firstgid="146" source="rocks_md.tsx"/>
 <tileset firstgid="178" source="rocks_sm.tsx"/>
 <layer id="3" name="water" width="50" height="25" locked="1">
  <data encoding="csv">
1,1,1,1,1,1,1,1,1,1,1,1,1,1,1,1,1,1,1,1,1,1,1,1,1,1,1,1,1,1,1,1,1,1,1,1,1,1,1,1,1,1,1,1,1,1,1,1,1,1,
1,1,1,1,1,1,1,1,1,1,1,1,1,1,1,1,1,1,1,1,1,1,1,1,1,1,1,1,1,1,1,1,1,1,1,1,1,1,1,1,1,1,1,1,1,1,1,1,1,1,
1,1,1,1,1,1,1,1,1,1,1,1,1,1,1,1,1,1,1,1,1,1,1,1,1,1,1,1,1,1,1,1,1,1,1,1,1,1,1,1,1,1,1,1,1,1,1,1,1,1,
1,1,1,1,1,1,1,1,1,1,1,1,1,1,1,1,1,1,1,1,1,1,1,1,1,1,1,1,1,1,1,1,1,1,1,1,1,1,1,1,1,1,1,1,1,1,1,1,1,1,
1,1,1,1,1,1,1,1,1,1,1,1,1,1,1,1,1,1,1,1,1,1,1,1,1,1,1,1,1,1,1,1,1,1,1,1,1,1,1,1,1,1,1,1,1,1,1,1,1,1,
1,1,1,1,1,1,1,1,1,1,1,1,1,1,1,1,1,1,1,1,1,1,1,1,1,1,1,1,1,1,1,1,1,1,1,1,1,1,1,1,1,1,1,1,1,1,1,1,1,1,
1,1,1,1,1,1,1,1,1,1,1,1,1,1,1,1,1,1,1,1,1,1,1,1,1,1,1,1,1,1,1,1,1,1,1,1,1,1,1,1,1,1,1,1,1,1,1,1,1,1,
1,1,1,1,1,1,1,1,1,1,1,1,1,1,1,1,1,1,1,1,1,1,1,1,1,1,1,1,1,1,1,1,1,1,1,1,1,1,1,1,1,1,1,1,1,1,1,1,1,1,
1,1,1,1,1,1,1,1,1,1,1,1,1,1,1,1,1,1,1,1,1,1,1,1,1,1,1,1,1,1,1,1,1,1,1,1,1,1,1,1,1,1,1,1,1,1,1,1,1,1,
1,1,1,1,1,1,1,1,1,1,1,1,1,1,1,1,1,1,1,1,1,1,1,1,1,1,1,1,1,1,1,1,1,1,1,1,1,1,1,1,1,1,1,1,1,1,1,1,1,1,
1,1,1,1,1,1,1,1,1,1,1,1,1,1,1,1,1,1,1,1,1,1,1,1,1,1,1,1,1,1,1,1,1,1,1,1,1,1,1,1,1,1,1,1,1,1,1,1,1,1,
1,1,1,1,1,1,1,1,1,1,1,1,1,1,1,1,1,1,1,1,1,1,1,1,1,1,1,1,1,1,1,1,1,1,1,1,1,1,1,1,1,1,1,1,1,1,1,1,1,1,
1,1,1,1,1,1,1,1,1,1,1,1,1,1,1,1,1,1,1,1,1,1,1,1,1,1,1,1,1,1,1,1,1,1,1,1,1,1,1,1,1,1,1,1,1,1,1,1,1,1,
1,1,1,1,1,1,1,1,1,1,1,1,1,1,1,1,1,1,1,1,1,1,1,1,1,1,1,1,1,1,1,1,1,1,1,1,1,1,1,1,1,1,1,1,1,1,1,1,1,1,
1,1,1,1,1,1,1,1,1,1,1,1,1,1,1,1,1,1,1,1,1,1,1,1,1,1,1,1,1,1,1,1,1,1,1,1,1,1,1,1,1,1,1,1,1,1,1,1,1,1,
1,1,1,1,1,1,1,1,1,1,1,1,1,1,1,1,1,1,1,1,1,1,1,1,1,1,1,1,1,1,1,1,1,1,1,1,1,1,1,1,1,1,1,1,1,1,1,1,1,1,
1,1,1,1,1,1,1,1,1,1,1,1,1,1,1,1,1,1,1,1,1,1,1,1,1,1,1,1,1,1,1,1,1,1,1,1,1,1,1,1,1,1,1,1,1,1,1,1,1,1,
1,1,1,1,1,1,1,1,1,1,1,1,1,1,1,1,1,1,1,1,1,1,1,1,1,1,1,1,1,1,1,1,1,1,1,1,1,1,1,1,1,1,1,1,1,1,1,1,1,1,
1,1,1,1,1,1,1,1,1,1,1,1,1,1,1,1,1,1,1,1,1,1,1,1,1,1,1,1,1,1,1,1,1,1,1,1,1,1,1,1,1,1,1,1,1,1,1,1,1,1,
1,1,1,1,1,1,1,1,1,1,1,1,1,1,1,1,1,1,1,1,1,1,1,1,1,1,1,1,1,1,1,1,1,1,1,1,1,1,1,1,1,1,1,1,1,1,1,1,1,1,
1,1,1,1,1,1,1,1,1,1,1,1,1,1,1,1,1,1,1,1,1,1,1,1,1,1,1,1,1,1,1,1,1,1,1,1,1,1,1,1,1,1,1,1,1,1,1,1,1,1,
1,1,1,1,1,1,1,1,1,1,1,1,1,1,1,1,1,1,1,1,1,1,1,1,1,1,1,1,1,1,1,1,1,1,1,1,1,1,1,1,1,1,1,1,1,1,1,1,1,1,
1,1,1,1,1,1,1,1,1,1,1,1,1,1,1,1,1,1,1,1,1,1,1,1,1,1,1,1,1,1,1,1,1,1,1,1,1,1,1,1,1,1,1,1,1,1,1,1,1,1,
1,1,1,1,1,1,1,1,1,1,1,1,1,1,1,1,1,1,1,1,1,1,1,1,1,1,1,1,1,1,1,1,1,1,1,1,1,1,1,1,1,1,1,1,1,1,1,1,1,1,
1,1,1,1,1,1,1,1,1,1,1,1,1,1,1,1,1,1,1,1,1,1,1,1,1,1,1,1,1,1,1,1,1,1,1,1,1,1,1,1,1,1,1,1,1,1,1,1,1,1
</data>
 </layer>
 <layer id="7" name="rocks" width="50" height="25" locked="1">
  <data encoding="csv">
0,0,0,0,0,0,0,0,0,0,0,0,0,0,0,0,0,0,0,0,0,0,0,0,0,0,0,0,0,0,0,0,0,0,0,0,0,0,0,0,0,0,0,0,0,0,0,0,0,0,
0,0,0,0,0,0,0,0,0,0,0,0,0,114,115,0,0,0,0,178,179,114,115,0,0,0,0,0,0,0,0,0,0,0,0,0,0,0,0,0,0,0,0,0,0,0,0,0,0,0,
0,0,178,179,0,0,0,0,0,0,0,0,0,130,131,0,0,0,0,194,195,130,131,0,146,147,0,0,0,0,0,0,114,115,0,0,0,0,0,0,0,0,0,0,0,0,0,0,0,0,
0,0,194,195,0,0,114,115,0,0,0,0,0,0,0,0,0,0,146,147,0,0,0,0,162,163,0,0,0,178,179,0,130,131,0,0,0,0,0,0,0,0,114,115,0,0,0,0,0,0,
0,0,178,179,0,0,130,131,0,0,0,0,0,0,0,0,0,0,162,163,0,0,0,0,0,0,0,0,0,194,195,0,0,0,0,0,0,0,0,0,0,0,130,131,0,0,0,0,0,0,
0,0,194,195,0,0,0,0,0,0,0,0,0,0,0,0,0,0,0,0,0,0,0,0,0,0,0,0,0,0,0,0,0,0,0,0,0,0,0,0,0,0,0,0,0,0,0,0,0,0,
0,178,179,0,178,179,0,0,0,0,0,0,0,0,0,0,0,146,147,0,0,0,0,0,0,178,179,0,0,0,0,0,0,0,0,0,0,0,0,0,0,0,0,178,179,0,0,0,0,0,
0,194,195,0,194,195,0,0,0,0,0,0,0,0,0,0,0,162,163,0,0,0,0,0,0,194,195,0,0,0,0,0,0,0,0,0,0,0,0,146,147,0,0,194,195,0,0,0,0,0,
0,0,0,0,0,0,0,0,0,0,0,0,0,0,0,0,0,0,0,146,147,0,0,0,0,114,115,0,0,0,0,0,0,0,0,0,0,0,0,162,163,0,0,0,0,0,0,0,0,0,
0,0,0,0,0,0,0,0,0,0,0,0,114,115,0,0,0,0,0,162,163,0,0,0,0,130,131,0,0,0,0,0,0,0,0,0,0,0,0,0,0,146,147,178,179,0,0,0,0,0,
0,0,0,114,115,0,0,0,0,0,0,0,130,131,0,0,0,0,0,0,0,0,0,0,0,0,0,0,0,0,0,0,114,115,0,0,0,0,0,0,0,162,163,194,195,178,179,0,178,179,
0,0,0,130,131,0,0,0,0,0,0,0,0,146,147,0,0,0,0,0,0,0,0,0,0,0,0,0,0,0,0,0,130,131,0,0,0,0,0,0,0,0,0,0,0,194,195,0,194,195,
0,0,0,0,0,0,0,0,0,0,0,0,0,162,163,0,0,0,0,0,0,0,0,0,0,0,0,0,0,0,0,0,0,0,0,0,0,0,0,0,114,115,0,0,0,0,0,0,0,0,
0,0,0,146,147,0,0,0,0,0,0,114,115,0,0,0,0,0,0,0,0,0,0,0,0,0,0,0,0,0,0,0,0,0,0,0,0,146,147,0,130,131,0,178,179,0,0,0,0,0,
0,0,0,162,163,0,0,0,0,0,0,130,131,0,0,0,0,0,0,146,147,0,0,146,147,0,0,0,146,147,0,0,0,0,0,0,0,162,163,0,0,0,0,194,195,0,0,0,0,0,
0,0,0,0,0,0,0,0,0,0,0,0,0,0,0,0,146,147,0,162,163,0,0,162,163,0,114,115,162,163,0,0,0,0,0,0,0,0,0,0,0,0,178,179,0,0,0,0,0,0,
0,0,0,0,0,0,0,0,0,0,0,0,0,0,0,0,162,163,0,0,0,0,0,0,0,0,130,131,0,0,0,0,0,0,0,0,0,0,0,178,179,0,194,195,0,0,0,0,0,0,
0,0,114,115,0,0,0,0,0,0,0,0,0,0,0,0,0,0,0,114,115,0,0,0,0,0,0,0,0,0,0,0,0,0,0,0,0,0,0,194,195,0,0,0,0,0,0,0,0,0,
0,0,130,131,0,0,0,0,0,0,0,0,0,0,0,0,0,0,0,130,131,0,0,0,0,0,0,0,0,0,0,0,0,0,0,0,0,0,0,0,0,0,0,0,178,179,0,0,0,0,
0,0,0,0,0,0,0,0,0,0,0,146,147,0,0,0,0,0,0,0,0,0,0,0,0,146,147,0,114,115,0,0,0,0,0,0,0,0,114,115,0,0,0,0,194,195,178,179,0,0,
0,0,0,0,114,115,0,0,0,114,115,162,163,178,179,0,0,0,0,0,146,147,0,178,179,162,163,0,130,131,0,0,0,0,0,0,0,0,130,131,0,0,114,115,0,0,194,195,0,0,
0,0,0,0,130,131,0,178,179,130,131,146,147,194,195,0,0,0,0,0,162,163,0,194,195,0,0,0,0,146,147,0,114,115,0,0,0,0,0,0,0,0,130,131,0,0,0,0,0,0,
0,0,0,0,0,0,0,194,195,146,147,162,163,0,0,0,0,0,146,147,0,0,0,0,146,147,0,0,0,162,163,0,130,131,0,0,0,0,0,0,178,179,0,0,0,0,0,0,0,0,
0,0,0,0,0,0,0,0,0,162,163,0,0,0,0,0,0,0,162,163,0,0,0,0,162,163,0,0,0,0,0,0,0,0,0,0,0,0,0,0,194,195,0,0,0,0,0,0,0,0,
0,0,0,0,0,0,0,0,0,0,0,0,0,0,0,0,0,0,0,0,0,0,0,0,0,0,0,0,0,0,0,0,0,0,0,0,0,0,0,0,0,0,0,0,0,0,0,0,0,0
</data>
 </layer>
 <layer id="2" name="foam" width="50" height="25" locked="1">
  <data encoding="csv">
0,0,0,0,0,0,0,0,0,0,0,0,0,0,0,0,0,0,0,0,0,0,0,0,0,0,0,0,0,0,0,0,0,0,0,0,0,0,0,0,0,0,0,0,0,0,0,0,0,0,
0,0,0,0,0,0,0,0,0,0,0,0,0,0,0,0,0,0,0,0,0,0,0,0,0,0,0,0,0,0,0,0,0,0,0,0,0,0,0,0,0,0,0,0,0,0,0,0,0,0,
0,0,0,0,0,0,0,0,0,0,0,0,0,0,0,0,0,0,0,0,0,0,0,0,0,0,0,0,0,0,0,0,0,0,0,0,0,0,0,0,0,0,0,0,0,0,0,0,0,0,
0,0,0,0,0,0,0,0,0,0,0,0,0,0,0,0,0,0,0,0,0,0,0,0,0,0,0,0,43,0,0,0,0,0,0,42,43,44,42,43,44,0,0,0,0,0,0,0,0,0,
0,0,0,0,0,0,0,0,0,43,43,43,43,43,43,43,43,43,43,43,43,43,43,43,43,43,43,43,0,68,0,0,43,0,0,66,67,68,66,67,68,0,0,0,0,0,0,0,0,0,
0,0,0,0,0,0,0,0,66,0,0,0,0,0,0,0,0,0,0,0,0,0,0,0,0,0,0,0,0,68,0,43,0,0,0,90,91,92,0,0,43,44,0,0,0,0,0,0,0,0,
0,0,0,0,0,0,0,0,66,0,0,0,0,0,0,0,0,68,66,0,0,0,68,0,68,91,91,0,0,68,0,0,0,43,43,43,0,0,0,0,67,68,0,0,0,0,0,0,0,0,
0,0,0,0,0,0,0,0,66,0,0,91,43,44,0,0,68,0,0,66,0,0,0,0,68,0,42,43,44,43,43,0,0,0,0,0,0,0,0,68,91,92,0,0,0,0,0,0,0,0,
0,0,0,0,0,0,0,43,66,0,0,0,67,68,91,0,0,68,0,0,66,0,0,0,68,0,66,67,68,0,0,0,91,91,91,0,0,0,0,68,0,0,0,0,0,0,0,0,0,0,
0,0,0,0,0,0,0,0,0,0,0,68,91,92,0,66,0,0,68,0,0,66,0,0,68,0,90,66,92,68,91,91,0,0,0,91,91,0,0,68,0,0,0,0,0,0,0,0,0,0,
0,0,0,0,0,0,66,0,0,0,68,0,0,0,0,0,0,0,68,0,0,66,0,0,0,68,0,66,0,0,68,0,0,0,0,43,43,0,68,0,0,0,0,0,0,0,0,0,0,0,
0,0,0,0,0,66,0,0,0,0,68,0,0,0,0,66,0,68,43,43,43,0,0,0,0,68,0,66,0,0,68,0,0,0,0,0,0,0,68,0,0,0,0,0,0,0,0,0,0,0,
0,0,0,0,0,66,0,0,0,0,68,0,0,0,0,66,0,0,0,0,0,0,0,0,0,0,0,0,0,0,68,0,0,0,0,0,0,0,68,0,0,0,0,0,0,0,0,0,0,0,
0,0,0,0,0,66,0,0,0,0,68,0,0,0,66,0,0,0,0,66,0,0,0,0,0,0,0,0,0,0,0,43,43,43,43,0,0,68,0,0,0,0,0,0,0,0,0,0,0,0,
0,0,0,0,0,66,0,0,0,0,68,0,42,43,0,0,68,0,0,0,66,0,68,91,91,91,91,91,91,66,0,0,0,0,0,0,0,68,0,0,0,0,0,0,0,0,0,0,0,0,
0,0,0,0,0,0,66,0,0,43,43,43,66,67,0,68,0,0,0,0,66,0,68,0,0,0,0,0,0,43,66,0,0,68,0,0,0,68,0,0,0,0,0,0,0,0,0,0,0,0,
0,0,0,0,0,0,0,66,0,0,0,0,43,0,0,68,0,0,0,0,66,0,0,0,68,0,0,0,43,0,0,66,0,68,0,0,0,43,44,0,0,0,0,0,0,0,0,0,0,0,
0,0,0,0,0,0,66,0,0,0,0,0,0,0,0,0,68,0,0,0,0,0,66,0,0,68,43,43,0,0,0,0,0,0,0,0,0,67,68,0,0,0,0,0,0,0,0,0,0,0,
0,0,0,0,0,0,0,66,0,0,0,0,0,0,0,0,0,0,0,0,0,0,0,66,0,0,91,0,0,0,0,0,0,0,0,0,0,0,68,0,0,0,0,0,0,0,0,0,0,0,
0,0,0,0,0,0,66,0,0,91,91,91,91,91,91,0,0,0,0,0,0,0,0,0,0,91,91,91,91,91,91,91,91,91,91,42,43,44,68,0,0,0,0,0,0,0,0,0,0,0,
0,0,0,0,0,0,0,91,91,0,0,0,0,0,0,91,0,0,91,91,91,91,91,91,91,0,0,0,0,0,0,0,0,0,0,66,67,68,0,0,0,0,0,0,0,0,0,0,0,0,
0,0,0,0,0,0,0,0,0,0,0,0,0,0,0,0,91,91,0,0,0,0,0,0,0,0,0,0,0,0,0,0,0,0,0,90,91,92,0,0,0,0,0,0,0,0,0,0,0,0,
0,0,0,0,0,0,0,0,0,0,0,0,0,0,0,0,0,0,0,0,0,0,0,0,0,0,0,0,0,0,0,0,0,0,0,0,0,0,0,0,0,0,0,0,0,0,0,0,0,0,
0,0,0,0,0,0,0,0,0,0,0,0,0,0,0,0,0,0,0,0,0,0,0,0,0,0,0,0,0,0,0,0,0,0,0,0,0,0,0,0,0,0,0,0,0,0,0,0,0,0,
0,0,0,0,0,0,0,0,0,0,0,0,0,0,0,0,0,0,0,0,0,0,0,0,0,0,0,0,0,0,0,0,0,0,0,0,0,0,0,0,0,0,0,0,0,0,0,0,0,0
</data>
 </layer>
 <layer id="1" name="land" width="50" height="25" locked="1">
  <data encoding="csv">
0,0,0,0,0,0,0,0,0,0,0,0,0,0,0,0,0,0,0,0,0,0,0,0,0,0,0,0,0,0,0,0,0,0,0,0,0,0,0,0,0,0,0,0,0,0,0,0,0,0,
0,0,0,0,0,0,0,0,0,0,0,0,0,0,0,0,0,0,0,0,0,0,0,0,0,0,0,0,0,0,0,0,0,0,0,0,0,0,0,0,0,0,0,0,0,0,0,0,0,0,
0,0,0,0,0,0,0,0,0,0,0,0,0,0,0,0,0,0,0,0,0,0,0,0,0,0,0,0,0,0,0,0,0,0,0,0,0,0,0,0,0,0,0,0,0,0,0,0,0,0,
0,0,0,0,0,0,0,0,0,0,0,0,0,0,0,0,0,0,0,0,0,0,0,0,0,0,0,0,0,0,0,0,0,0,0,0,0,0,0,0,0,0,0,0,0,0,0,0,0,0,
0,0,0,0,0,0,0,0,0,0,0,0,0,0,0,0,0,0,0,0,0,0,0,0,0,0,0,0,10,0,0,0,0,0,0,0,10,0,0,10,0,0,0,0,0,0,0,0,0,0,
0,0,0,0,0,0,0,0,0,7,8,8,8,8,8,8,8,38,38,8,8,8,38,8,38,38,38,8,19,0,0,0,10,0,0,0,17,8,8,19,0,0,0,0,0,0,0,0,0,0,
0,0,0,0,0,0,0,0,0,17,18,28,28,28,18,18,29,0,0,27,18,19,0,20,0,0,0,27,19,0,0,7,19,0,0,0,17,18,18,28,39,0,0,0,0,0,0,0,0,0,
0,0,0,0,0,0,0,0,0,17,19,0,0,0,27,19,0,0,0,0,27,18,8,19,0,0,0,0,20,0,0,17,28,38,38,8,18,18,19,0,0,0,0,0,0,0,0,0,0,0,
0,0,0,0,0,0,0,0,0,17,18,38,39,0,0,27,9,0,0,0,0,27,18,19,0,0,0,37,18,38,38,29,0,0,0,27,28,18,19,0,0,0,0,0,0,0,0,0,0,0,
0,0,0,0,0,0,0,7,8,18,29,0,0,0,0,0,17,9,0,0,0,0,17,19,0,0,0,0,20,0,0,0,0,0,0,0,0,17,29,0,0,0,0,0,0,0,0,0,0,0,
0,0,0,0,0,0,0,17,18,19,0,0,0,0,0,37,18,29,0,0,0,0,17,18,9,0,0,0,17,9,0,0,0,0,0,0,0,20,0,0,0,0,0,0,0,0,0,0,0,0,
0,0,0,0,0,0,7,18,18,19,0,0,0,0,0,0,20,0,0,0,0,7,18,18,19,0,0,0,17,19,0,0,0,0,0,7,8,19,0,0,0,0,0,0,0,0,0,0,0,0,
0,0,0,0,0,0,17,18,18,19,0,0,0,0,0,0,17,8,8,38,8,18,18,18,18,8,8,8,18,19,0,0,0,0,0,17,18,29,0,0,0,0,0,0,0,0,0,0,0,0,
0,0,0,0,0,0,17,18,18,19,0,0,0,0,0,7,28,28,29,0,27,18,28,28,28,28,28,28,28,28,9,0,0,0,0,17,19,0,0,0,0,0,0,0,0,0,0,0,0,0,
0,0,0,0,0,0,27,18,18,29,0,0,0,0,7,29,0,0,0,0,0,20,0,0,0,0,0,0,0,0,27,8,8,38,8,18,19,0,0,0,0,0,0,0,0,0,0,0,0,0,
0,0,0,0,0,0,0,27,19,0,0,0,0,7,19,0,0,0,0,0,0,20,0,0,0,0,0,0,0,0,0,27,19,0,27,18,19,0,0,0,0,0,0,0,0,0,0,0,0,0,
0,0,0,0,0,0,0,0,17,8,8,9,0,17,19,0,0,0,0,0,0,27,38,9,0,0,0,0,0,7,39,0,20,0,0,17,19,0,0,0,0,0,0,0,0,0,0,0,0,0,
0,0,0,0,0,0,0,37,18,18,18,18,8,18,18,9,0,0,0,0,0,0,0,27,9,0,0,0,7,19,0,7,18,8,8,18,18,9,0,0,0,0,0,0,0,0,0,0,0,0,
0,0,0,0,0,0,0,0,17,28,28,28,28,28,28,18,8,8,9,0,0,0,0,0,17,38,38,38,28,28,38,28,28,28,28,28,18,19,0,0,0,0,0,0,0,0,0,0,0,0,
0,0,0,0,0,0,0,37,29,0,0,0,0,0,0,27,18,18,28,38,38,38,38,38,29,0,0,0,0,0,0,0,0,0,0,0,17,29,0,0,0,0,0,0,0,0,0,0,0,0,
0,0,0,0,0,0,0,0,0,0,0,0,0,0,0,0,27,29,0,0,0,0,0,0,0,0,0,0,0,0,0,0,0,0,0,0,30,0,0,0,0,0,0,0,0,0,0,0,0,0,
0,0,0,0,0,0,0,0,0,0,0,0,0,0,0,0,0,0,0,0,0,0,0,0,0,0,0,0,0,0,0,0,0,0,0,0,0,0,0,0,0,0,0,0,0,0,0,0,0,0,
0,0,0,0,0,0,0,0,0,0,0,0,0,0,0,0,0,0,0,0,0,0,0,0,0,0,0,0,0,0,0,0,0,0,0,0,0,0,0,0,0,0,0,0,0,0,0,0,0,0,
0,0,0,0,0,0,0,0,0,0,0,0,0,0,0,0,0,0,0,0,0,0,0,0,0,0,0,0,0,0,0,0,0,0,0,0,0,0,0,0,0,0,0,0,0,0,0,0,0,0,
0,0,0,0,0,0,0,0,0,0,0,0,0,0,0,0,0,0,0,0,0,0,0,0,0,0,0,0,0,0,0,0,0,0,0,0,0,0,0,0,0,0,0,0,0,0,0,0,0,0
</data>
 </layer>
 <objectgroup id="4" name="spawn_points" locked="1">
  <object id="1" name="character" type="character" x="384" y="768" width="192" height="192"/>
  <object id="3" name="tower_blue" type="building" x="2368" y="192" width="128" height="256">
   <properties>
    <property name="is_checkpoint" type="bool" value="true"/>
   </properties>
  </object>
  <object id="4" name="torch_blue" type="monster" x="1408" y="704" width="192" height="192">
   <properties>
    <property name="negXBound" type="float" value="1"/>
    <property name="posXBound" type="float" value="1"/>
   </properties>
  </object>
  <object id="5" name="fire" type="effects" x="759.111" y="313.078" width="128" height="128"/>
  <object id="6" name="fire" type="effects" x="891.9" y="312.94" width="128" height="128"/>
  <object id="7" name="fire" type="effects" x="1015.08" y="571.625" width="128" height="128"/>
  <object id="8" name="fire" type="effects" x="1020.01" y="771.181" width="128" height="128"/>
  <object id="9" name="fire" type="effects" x="544.524" y="1076.68" width="128" height="128"/>
  <object id="10" name="fire" type="effects" x="697.271" y="1079.14" width="128" height="128"/>
  <object id="11" name="fire" type="effects" x="1024.94" y="1157.98" width="128" height="128"/>
  <object id="12" name="fire" type="effects" x="2012.87" y="1088.99" width="128" height="128"/>
  <object id="13" name="fire" type="effects" x="1980.84" y="891.9" width="128" height="128"/>
  <object id="14" name="fire" type="effects" x="1796.06" y="640.607" width="128" height="128"/>
  <object id="15" name="fire" type="effects" x="1280" y="320" width="128" height="128"/>
  <object id="16" name="fire" type="effects" x="1722.15" y="312.94" width="128" height="128"/>
  <object id="17" name="fire" type="effects" x="1522.6" y="285.84" width="128" height="128"/>
  <object id="18" name="fire" type="effects" x="1984" y="384" width="128" height="128"/>
  <object id="19" name="fire" type="effects" x="2240" y="768" width="128" height="128"/>
  <object id="20" name="fire" type="effects" x="2240" y="1024" width="128" height="128"/>
  <object id="22" name="fire" type="effects" x="1394.49" y="1182.61" width="128" height="128"/>
  <object id="23" name="fire" type="effects" x="1318.11" y="941.174" width="128" height="128"/>
  <object id="24" name="fire" type="effects" x="1428.98" y="1000.3" width="128" height="128"/>
 </objectgroup>
 <objectgroup id="5" name="collisions" locked="1">
  <object id="25" type="boundary" x="2386.05" y="351.847" width="96.0965" height="79.7509"/>
  <object id="26" type="boundary" x="520.521" y="228.228" width="1267.27" height="86.0861"/>
  <object id="27" type="boundary" x="1739.74" y="160.16" width="156.156" height="94.0941"/>
  <object id="28" type="boundary" x="1853.85" y="118.118" width="128.128" height="386.386"/>
  <object id="29" type="boundary" x="440.44" y="220.22" width="134.134" height="352.352"/>
  <object id="31" type="boundary" x="324.653" y="234.375" width="125" height="472.222"/>
  <object id="32" type="boundary" x="215.278" y="635.417" width="164.931" height="390.625"/>
  <object id="34" type="boundary" x="241.319" y="958.333" width="203.125" height="364.583"/>
  <object id="35" type="boundary" x="335.069" y="1024.31" width="177.083" height="60.7639"/>
  <object id="36" type="boundary" x="340.278" y="1154.51" width="171.875" height="60.7639"/>
  <object id="37" type="boundary" x="321.181" y="1281.25" width="343.75" height="114.583"/>
  <object id="38" type="boundary" x="579.861" y="1213.54" width="380.208" height="130.208"/>
  <object id="39" type="boundary" x="868.056" y="1272.57" width="152.778" height="107.639"/>
  <object id="41" type="boundary" x="967.014" y="1343.75" width="263.889" height="92.0139"/>
  <object id="42" type="boundary" x="1153.38" y="1287.22" width="563.91" height="124.812"/>
  <object id="43" type="boundary" x="1603.01" y="1218.05" width="697.744" height="145.865"/>
  <object id="44" type="boundary" x="2200" y="1342.86" width="273.684" height="132.331"/>
  <object id="45" type="boundary" x="2372.93" y="1282.71" width="201.504" height="203.008"/>
  <object id="46" type="boundary" x="2431.58" y="1013.53" width="181.955" height="416.541"/>
  <object id="47" type="boundary" x="2374.44" y="830.075" width="168.421" height="258.647"/>
  <object id="48" type="boundary" x="2434.59" y="637.594" width="135.338" height="251.128"/>
  <object id="49" type="boundary" x="2500.75" y="446.617" width="136.842" height="288.722"/>
  <object id="50" type="boundary" x="2560.9" y="142.857" width="106.767" height="239.098"/>
  <object id="51" type="boundary" x="2627.07" y="299.248" width="111.278" height="243.609"/>
  <object id="52" type="boundary" x="2434.59" y="96.2406" width="180.451" height="159.398"/>
  <object id="53" type="boundary" x="2368.42" y="67.6692" width="127.82" height="251.128"/>
  <object id="54" type="boundary" x="2216.54" y="93.2331" width="213.534" height="163.91"/>
  <object id="55" type="boundary" x="2123.31" y="66.1654" width="183.459" height="378.947"/>
  <object id="56" type="boundary" x="2109.77" y="172.932" width="48.1203" height="272.18"/>
  <object id="57" type="boundary" x="1957.89" y="216.541" width="254.135" height="99.2481"/>
  <object id="58" type="boundary" x="1912.78" y="192.481" width="136.842" height="187.97"/>
  <object id="60" type="boundary" x="1537.21" y="383.193" width="186.418" height="99.1271"/>
  <object id="61" type="boundary" x="1412.93" y="383.193" width="59.1804" height="63.6189"/>
  <object id="62" type="boundary" x="1690.71" y="444.653" width="103.269" height="66.5699"/>
  <object id="65" type="boundary" x="1537.94" y="382.35" width="189.468" height="264.573"/>
  <object id="66" type="boundary" x="1598.53" y="576.086" width="194.589" height="191.175"/>
  <object id="67" type="boundary" x="702.967" y="448.478" width="195.909" height="62.422"/>
  <object id="68" type="boundary" x="921.925" y="573.322" width="101.796" height="67.2237"/>
  <object id="69" type="boundary" x="830.692" y="508.019" width="134.447" height="85.4701"/>
  <object id="70" type="boundary" x="827.811" y="458.081" width="71.065" height="131.566"/>
  <object id="71" type="boundary" x="702.967" y="574.282" width="203.592" height="188.226"/>
  <object id="72" type="boundary" x="635.744" y="640.545" width="258.331" height="315.951"/>
  <object id="73" type="boundary" x="576.203" y="961.298" width="256.41" height="65.303"/>
  <object id="74" type="boundary" x="638.625" y="861.423" width="103.717" height="145.011"/>
  <object id="75" type="boundary" x="588.687" y="956.497" width="196.869" height="55.6996"/>
  <object id="76" type="boundary" x="766.35" y="914.242" width="68.184" height="169.019"/>
  <object id="77" type="boundary" x="832.613" y="827.811" width="126.765" height="68.184"/>
  <object id="78" type="boundary" x="935.369" y="704.888" width="91.2321" height="127.725"/>
  <object id="79" type="boundary" x="881.59" y="580.044" width="79.7081" height="143.09"/>
  <object id="80" type="boundary" x="1090.94" y="705.848" width="251.609" height="62.422"/>
  <object id="81" type="boundary" x="1089.02" y="382.215" width="128.685" height="63.3823"/>
  <object id="82" type="boundary" x="1021.8" y="449.438" width="261.212" height="60.5013"/>
  <object id="84" type="boundary" x="1089.02" y="513.781" width="255.45" height="59.541"/>
  <object id="86" type="boundary" x="1151.45" y="577.163" width="256.41" height="125.804"/>
  <object id="87" type="boundary" x="1216.86" y="832.247" width="64.1026" height="105.389"/>
  <object id="90" type="boundary" x="1023.47" y="890.917" width="322.686" height="187.962"/>
  <object id="91" type="boundary" x="959.365" y="962.625" width="386.788" height="123.859"/>
  <object id="92" type="boundary" x="1025.64" y="1022.38" width="235.767" height="130.378"/>
  <object id="93" type="boundary" x="1220.12" y="1018.04" width="79.3133" height="194.481"/>
  <object id="94" type="boundary" x="1303.78" y="1088.66" width="167.319" height="58.6701"/>
  <object id="95" type="boundary" x="1247.28" y="1152.76" width="289.005" height="58.6701"/>
  <object id="96" type="boundary" x="1252.72" y="947.414" width="91.2647" height="172.751"/>
  <object id="97" type="boundary" x="1411.34" y="896.349" width="508.475" height="127.119"/>
  <object id="98" type="boundary" x="1539.55" y="1006.08" width="317.253" height="80.3998"/>
  <object id="99" type="boundary" x="1601.48" y="1064.75" width="191.221" height="86.9187"/>
  <object id="100" type="boundary" x="1921.99" y="1090.83" width="61.9296" height="59.7566"/>
  <object id="101" type="boundary" x="1985.01" y="1023.47" width="63.0161" height="64.1026"/>
  <object id="102" type="boundary" x="1883.96" y="959.365" width="98.8701" height="61.9296"/>
  <object id="103" type="boundary" x="2112.13" y="960.452" width="66.2755" height="123.859"/>
  <object id="104" type="boundary" x="2115.38" y="1021.3" width="124.946" height="65.189"/>
  <object id="105" type="boundary" x="2049.65" y="512.061" width="189.025" height="94.5126"/>
  <object id="106" type="boundary" x="2194.95" y="574.129" width="172.098" height="126.957"/>
  <object id="107" type="boundary" x="1857.81" y="574.129" width="314.572" height="66.2999"/>
  <object id="108" type="boundary" x="1926.93" y="609.395" width="169.276" height="221.47"/>
  <object id="109" type="boundary" x="1981.94" y="712.371" width="259.557" height="187.615"/>
 </objectgroup>
</map>
